X: 29942
T: O'Sullivan's March
R: jig
M: 6/8
K: Gmajor
A,|:DFE EFA|BAF E2A,|DFE F2 D|EDD DB,A,|
DFE EFA|BAF E2A,|DFE F2 D|1 EDD DB,A,:|2 EDD D2d||
|:B2d B2d|BdB BAF|ABA AFG|AdF E2D|
GFG AGA|BdF E2 A,|DFE F2 D|1 EDD D2d:|2 EDD D3||

